!!!ONB: MCCC : IJH0462_02 : Extracted Monophonic Melody
!!!COM: Haydn, Joseph
!!!OPR: String Quartet in G major
!!!OMV: 2
!!!SCT: Hob.III:41 ; Op.33 No.5
!!!ODT: 1781///
**kern
*thru
*k[b-e-]
*g:
*clefG
*M4/4
4dd
=1
4..gg
16dd
4..bb-
32aa
32gg
=2
8ff#
8r
8aa
4.r
4dd
=3
4..aa
16dd
4..ccc
32bb-
32aa
=4
8gg
8r
8bb-
4.r
4dd
=5
4..ddd
48ccc
48bb-
48aa
8bb-
8ff#
8gg
8dd
=6
3ee-[
96ee-]
32dd
32cc
32b-
32a
32g
8f#
32bb-
32aa
16r
32gg
32ff#
16r
32ee-
32dd
16r
=7
32cc
32b-
16r
32ff#
32gg
16r
32dd
32ee-
16r
32b
32cc
16r
4d
8.a
16g
=8
8G
6..r
48r
32G
32A
8B-
16r
32B-
32c
8d
16r
32d
32B-
=9
8G
3..r
24r
4dd
=10
4..gg
16dd
4..bb-
48aa
48gg
48ff
=11
8ee
8r
8gg
4.r
4ee
=12
4.ff
8aa
16.ccc
32aa
16.ddd
32bb-
8.eee-
16ee-
=13
4ee-
4dd
4r
4ff
=14
4bb-
2bb-
4ff#
=15
4gg
4.gg
8ff
8ee-
8dd
=16
8cc
16cc
16dd
8ee
16ee
16ff
8gg
16gg
16aa
8.bb-
16b-
=17
8a
16g
16f
4f
2r
=18
4..ee-
48dd
48cc
48b-
8a
8cc
8a
8f
=19
6..e-[
48e-]
16d
16g
16f
16b-
16a
16ee-
16dd
16gg
16ff
16aa
16bb-
=20
4..ee-
48dd
48cc
48b-
8a
8cc
8a
8f
=21
4e-
24d
24e-
24f
24g
24a
24b-
24cc
24dd
24ee-
24ff
24gg
24aa
8bb-
16r
16ff#
=22
4gg
4.eee-
8ddd
8ccc
8bb-
=23
8aa
8ggg
2ggg
8fff
8eee-
=24
16ddd
16fff
16eee-
16ddd
4.bbb-
16d
16dd
16e-
16ee-
16e
16ee
=25
4.ff
32ee-
32dd
32cc
32b-
2cc
=26
1b-
=27
3..b[
24b]
8aa-
8gg
8b
=28
1cc
=29
1cc#
=30
2.dd
4ff#
=31
4..gg
16dd
4..bb-
32aa
32gg
=32
8ff#
8r
8aa
8r
16c#
16d
16f#
16a
16cc#
16dd
16gg
16ff#
=33
8.aa
16cc#
16dd
16ee-
16ee
16ff
16ff#
16gg
16aa
16bb-
8ccc
16bb-
16aa
=34
8gg
8r
8bb-
8r
16G
16B-
16d
16g
16b-
16dd
16gg
16bb-
=35
4..ddd
48ccc
48bb-
48aa
8.bb-
48aa
48gg
48ff#
8gg
16r
16dd
=36
6..ee-
24dd
24cc
24b-
24a
24g
24f#
24ee-
24dd
24cc
24aa
24gg
24ff#
24ccc
24aa
24gg
24ff#
24ee-
=37
24dd
24cc
24b-
24ff#
24gg
24dd
24ff
24dd
24ee-
24dd
24b
24cc
8.d
32g
32a
8.a
16g
=38
8G
6..r
48r
32e-
32f
8g
16r
32g
32a-
8b-
16r
32b-
32g
=39
8e-
6..r
48r
32b-
32g
8d
6..r
48r
32b-
32g
=40
8c#
6..r
48r
32gg
32aa
8bb-
8gg
8gg
8gg
=41
4..gg
16ff#
16gg
16ff#
16gg
16ff#
16gg
16aa
16bb-
16dd
=42
16cc#
16bb-
16gg#
16aa
16ff#
16gg
16aa
16cc
16b-
16aa
16ff#
16gg
16b
16aa-
16ee
16ff
=43
16cc
16gg
16dd
16ee-
16cc#
16bb-
16ff#
16gg
16dd
16aa
16ee
16ff#
16a
16ccc
16aa
16ff#
=44
16ee-
16cc
16a
16f#
8e-
8e-
4.e-
32d
32c
32B-
32A
=45
16G
16d
16B-
16g
16d
16b-
16g
16gg
16G
16e-
16B-
16g
16e-
16b-
16g
16gg
=46
16G
16c#
16e
16g
16b-
16cc#
16ee
16gg
4..bb-
32aa
32gg
=47
16ff#
16gg
16aa
16gg
16bb-
16aa
16ccc
16bb-
16ddd
16ccc
16eee-
16ddd
8eee-
8eee-
=48
2eee-
8r
8fff#
8fff#
8fff#
=49
8ggg
8r
8aaa
8r
8bbb-
4r
8c#
=50
4.dd
32cc
32b-
32a
32g
4..a
16g
=51
8G
6..r
48r
32G
32A
8B-
16r
32B-
32c
8d
16r
32d
32B-
=52
8G
6..r
48r
32G
32A
8B-
16r
32B-
32c
8d
16r
32d
32B-
=53
8G
8r
8g
8r
4G
4r
==
*-
